packages/foundations/assets/icons/functional/images/transportation/bike_trailer_28_inverted.svg

<svg width="28" height="28" viewBox="0 0 28 28" fill="none" xmlns="http://www.w3.org/2000/svg">
<g clip-path="url(#clip0_2214_6656)">
<path fill-rule="evenodd" clip-rule="evenodd" d="M8.35481 17.6225C9.3213 17.6225 10.1048 18.406 10.1048 19.3725C10.1048 20.339 9.3213 21.1225 8.35481 21.1225C7.38831 21.1225 6.60481 20.339 6.60481 19.3725C6.60481 18.406 7.38831 17.6225 8.35481 17.6225ZM6.5556 6.91236C6.97889 6.98501 8.32625 7.44166 10.5977 8.28231C12.4464 8.92803 14.1494 9.93241 15.609 11.2378C17.1847 12.6471 18.4943 14.0103 19.5379 15.3297C19.7081 15.5449 19.7675 15.8274 19.6984 16.0929C19.3539 17.5624 19.1358 18.3748 19.0441 18.5302C18.414 19.5974 17.6576 20.2475 16.7179 20.2475L11.7704 20.1398C12.2725 17.5956 10.2581 15.8725 8.35481 15.8725C6.45152 15.8725 4.65781 17.4936 4.87788 19.7766C4.50495 19.7274 4.13392 19.6567 3.76758 19.5652C2.86381 19.3392 2.2298 18.5272 2.2298 17.5956C2.21248 15.8926 2.21957 14.9627 2.25105 14.8058C2.53922 13.5182 2.97913 11.5589 3.57077 8.92798C3.87702 7.56397 5.19362 6.68839 6.5556 6.91236ZM24.9044 17.0191C25.3876 17.0191 25.7794 17.4108 25.7794 17.8941C25.7794 18.3773 25.3876 18.7691 24.9044 18.7691C24.6214 18.7691 24.3567 18.811 24.0799 18.9283C23.8953 19.0065 23.365 19.2655 22.4891 19.7054C22.1882 19.8537 21.8623 19.9427 21.529 19.9683C21.4261 19.9734 21.2136 19.976 20.8914 19.976C20.4082 19.976 20.0164 19.5842 20.0164 19.101C20.0164 18.6522 20.3945 18.2509 20.7894 18.2319C20.9566 18.2279 21.1363 18.226 21.3283 18.226C21.4621 18.2299 21.5911 18.1998 21.7152 18.1358L23.1513 17.4278C23.6966 17.1589 24.2964 17.0191 24.9044 17.0191ZM5.25512 9.63156L4.67908 12.1806C4.57365 12.6522 4.87048 13.12 5.34209 13.2254C5.78001 13.3233 6.21464 13.0744 6.35891 12.6607L6.82276 10.6155L9.6782 11.619C10.595 11.9409 11.4509 12.4131 12.2112 13.0153L13.5079 14.1231C13.874 14.4386 14.4265 14.3976 14.742 14.0316C15.0332 13.6937 15.0208 13.197 14.7292 12.8744L13.6344 11.9217C12.7312 11.1431 11.7027 10.5246 10.5933 10.092C8.70939 9.41923 7.44126 8.97493 6.78892 8.75909C6.12312 8.61024 5.4624 8.9959 5.25512 9.63156Z" fill="#1A1C1F"/>
</g>
<defs>
<clipPath id="clip0_2214_6656">
<rect width="28" height="28" fill="white"/>
</clipPath>
</defs>
</svg>

<svg xmlns="http://www.w3.org/2000/svg" width="28" height="28" fill="none"><g clip-path="url(#a)"><path fill="#1A1C1F" fill-rule="evenodd" d="M8.355 17.623a1.75 1.75 0 1 1 0 3.5 1.75 1.75 0 0 1 0-3.5m-1.8-10.71q.635.108 4.043 1.37a14.9 14.9 0 0 1 5.011 2.955q2.363 2.114 3.929 4.092c.17.215.23.497.16.763q-.516 2.205-.654 2.437c-.63 1.067-1.386 1.717-2.326 1.717l-4.948-.107c.503-2.544-1.512-4.267-3.415-4.267a3.514 3.514 0 0 0-3.477 3.904 10 10 0 0 1-1.11-.212 2.03 2.03 0 0 1-1.538-1.97q-.026-2.553.021-2.79.432-1.93 1.32-5.877a2.625 2.625 0 0 1 2.985-2.016m18.35 10.106a.875.875 0 1 1 0 1.75c-.284 0-.548.042-.825.16q-.277.117-1.59.776c-.302.149-.628.238-.961.263q-.154.008-.638.008a.875.875 0 0 1-.875-.875c0-.449.379-.85.773-.87q.251-.005.54-.005a.8.8 0 0 0 .386-.09l1.436-.708a4 4 0 0 1 1.753-.409M5.254 9.632 4.68 12.18a.875.875 0 0 0 1.68.48l.464-2.045 2.855 1.003a8.8 8.8 0 0 1 2.533 1.396l1.297 1.108a.875.875 0 0 0 1.221-1.249l-1.095-.952a10.5 10.5 0 0 0-3.04-1.83 212 212 0 0 0-3.805-1.333 1.313 1.313 0 0 0-1.534.873" clip-rule="evenodd"/></g><defs><clipPath id="a"><path fill="#fff" d="M0 0h28v28H0z"/></clipPath></defs></svg>
